swiss/communes/5591.svg

<svg xmlns="http://www.w3.org/2000/svg" xmlns:xlink="http://www.w3.org/1999/xlink" height="763" width="603" version="1.0"><defs><radialGradient xlink:href="#a" id="b" gradientUnits="userSpaceOnUse" gradientTransform="matrix(1.21503 0 0 1.26667 -839.192 -490.49)" cx="858.042" cy="579.933" fx="858.042" fy="579.933" r="300"/><linearGradient id="a"><stop style="stop-color:#fff;stop-opacity:.3137255" offset="0"/><stop offset=".19" style="stop-color:#fff;stop-opacity:.25098041"/><stop style="stop-color:#6b6b6b;stop-opacity:.1254902" offset=".6"/><stop style="stop-color:#000;stop-opacity:.1254902" offset="1"/></linearGradient></defs><g style="opacity:1;display:inline"><path d="M1.5 1.5v458.869C1.5 626.68 135.814 761.5 301.5 761.5c165.688 0 300-134.82 300-301.131V1.5H1.5z" style="opacity:1;fill:#fff;display:inline"/><path d="M1.5 251.188v209.181C1.5 626.68 135.814 761.5 301.5 761.5c165.688 0 300-134.82 300-301.131V251.188H1.5z" style="opacity:1;fill:#e20909;display:inline"/></g><g style="opacity:1;display:inline"><path style="fill:#fff" d="M465.491 422.343c0-58.492 29.634-58.492 29.634-116.984 0-26.375-6.025-40.856-12.643-54.171H363.276c6.617 13.315 12.643 27.796 12.643 54.171 0 58.492-29.634 58.492-29.634 116.984 0 58.491 29.634 58.491 29.634 116.983 0 58.491-29.632 58.491-29.632 116.982 0 50.594 22.167 57.433 28.154 96.208 36.958-9.268 71.203-25.403 101.303-46.997-5.609-12.077-10.251-26.063-10.251-49.211 0-58.491 29.632-58.491 29.632-116.982 0-58.492-29.634-58.492-29.634-116.983zM244.07 251.188H124.864c6.617 13.315 12.643 27.796 12.643 54.171 0 58.492-29.634 58.492-29.634 116.984 0 58.491 29.634 58.491 29.634 116.983 0 58.491-29.632 58.491-29.632 116.982 0 17.014 2.509 29.074 6.065 39.069 40.165 32.339 88.784 54.533 142.015 62.672-4.627-43.778-28.874-48.83-28.874-101.741 0-58.491 29.632-58.491 29.632-116.982 0-58.492-29.634-58.492-29.634-116.983 0-58.492 29.634-58.492 29.634-116.984 0-26.375-6.026-40.856-12.643-54.171z"/><path style="fill:none;stroke:#000;stroke-width:3" d="M475.744 705.52c-5.609-12.077-10.251-26.063-10.251-49.211 0-58.491 29.632-58.491 29.632-116.982 0-58.492-29.634-58.492-29.634-116.983 0-58.492 29.634-58.492 29.634-116.984 0-26.375-6.025-40.856-12.643-54.171m-119.206-.001c6.617 13.315 12.643 27.796 12.643 54.171 0 58.492-29.634 58.492-29.634 116.984 0 58.491 29.634 58.491 29.634 116.983 0 58.491-29.632 58.491-29.632 116.982 0 50.594 22.167 57.433 28.154 96.208m-118.486 5.534c-4.627-43.778-28.874-48.83-28.874-101.741 0-58.491 29.632-58.491 29.632-116.982 0-58.492-29.634-58.492-29.634-116.983 0-58.492 29.634-58.492 29.634-116.984 0-26.375-6.026-40.856-12.643-54.171m-119.206-.001c6.617 13.315 12.643 27.796 12.643 54.171 0 58.492-29.634 58.492-29.634 116.984 0 58.491 29.634 58.491 29.634 116.983 0 58.491-29.632 58.491-29.632 116.982 0 17.014 2.509 29.074 6.065 39.069M1.5 251.188h599.999"/></g><g style="display:inline"><path style="fill:url(#b);fill-opacity:1" d="M1.5 1.5v458.868c0 166.31 134.315 301.132 300 301.132s300-134.821 300-301.132V1.5H1.5z"/></g><g style="display:inline"><path style="fill:none;fill-opacity:1;stroke:#000;stroke-width:3;stroke-miterlimit:4;stroke-dasharray:none;stroke-opacity:1" d="M1.5 1.5v458.868c0 166.31 134.315 301.132 300 301.132s300-134.821 300-301.132V1.5H1.5z"/></g></svg>

<?xml version="1.0" encoding="UTF-8" standalone="no"?>
<svg
   xmlns:dc="http://purl.org/dc/elements/1.1/"
   xmlns:cc="http://creativecommons.org/ns#"
   xmlns:rdf="http://www.w3.org/1999/02/22-rdf-syntax-ns#"
   xmlns:svg="http://www.w3.org/2000/svg"
   xmlns="http://www.w3.org/2000/svg"
   xmlns:xlink="http://www.w3.org/1999/xlink"
   xmlns:sodipodi="http://sodipodi.sourceforge.net/DTD/sodipodi-0.dtd"
   xmlns:inkscape="http://www.inkscape.org/namespaces/inkscape"
   height="763"
   width="603"
   version="1.0"
   id="svg20"
   sodipodi:version="0.32"
   inkscape:version="0.46"
   sodipodi:docname="Renens-coat_of_arms.svg"
   sodipodi:docbase="C:\Documents and Settings\Steve\Bureau\Blason Villages Suisse pour Wikipédia (par Delta-9)"
   inkscape:output_extension="org.inkscape.output.svg.inkscape">
  <metadata
     id="metadata31">
    <rdf:RDF>
      <cc:Work
         rdf:about="">
        <dc:format>image/svg+xml</dc:format>
        <dc:type
           rdf:resource="http://purl.org/dc/dcmitype/StillImage" />
        <dc:date>07-AUG-2006</dc:date>
        <dc:creator>
          <cc:Agent>
            <dc:title>Jérôme BLUM (wagner51)</dc:title>
          </cc:Agent>
        </dc:creator>
        <cc:license
           rdf:resource="http://creativecommons.org/licenses/GPL/2.0/" />
        <dc:coverage />
        <dc:description>Gabarit pour le Projet:Blasons de WIkipédia</dc:description>
        <dc:subject>
          <rdf:Bag>
            <rdf:li>blason suisse modèle gabarit projet blasons</rdf:li>
          </rdf:Bag>
        </dc:subject>
        <dc:language>fr</dc:language>
        <dc:title>Gabrit d'un blason suisse</dc:title>
      </cc:Work>
      <cc:License
         rdf:about="http://creativecommons.org/licenses/GPL/2.0/">
        <cc:permits
           rdf:resource="http://web.resource.org/cc/Reproduction" />
        <cc:permits
           rdf:resource="http://web.resource.org/cc/Distribution" />
        <cc:requires
           rdf:resource="http://web.resource.org/cc/Notice" />
        <cc:permits
           rdf:resource="http://web.resource.org/cc/DerivativeWorks" />
        <cc:requires
           rdf:resource="http://web.resource.org/cc/ShareAlike" />
        <cc:requires
           rdf:resource="http://web.resource.org/cc/SourceCode" />
      </cc:License>
    </rdf:RDF>
  </metadata>
  <defs
     id="defs29"><inkscape:perspective
   sodipodi:type="inkscape:persp3d"
   inkscape:vp_x="0 : 381.5 : 1"
   inkscape:vp_y="0 : 1000 : 0"
   inkscape:vp_z="603 : 381.5 : 1"
   inkscape:persp3d-origin="301.5 : 254.33333 : 1"
   id="perspective28" />
<linearGradient
   id="linearGradient2893">
  <stop
     style="stop-color:#ffffff;stop-opacity:0.3137255;"
     offset="0"
     id="stop2895" />
  <stop
     id="stop2897"
     offset="0.19"
     style="stop-color:#ffffff;stop-opacity:0.25098041;" />
  <stop
     style="stop-color:#6b6b6b;stop-opacity:0.1254902;"
     offset="0.60000002"
     id="stop2901" />
  <stop
     style="stop-color:#000000;stop-opacity:0.1254902;"
     offset="1"
     id="stop2899" />
</linearGradient>
<linearGradient
   id="linearGradient2955">
  <stop
     style="stop-color:white;stop-opacity:0;"
     offset="0"
     id="stop2965" />
  <stop
     style="stop-color:black;stop-opacity:0.64583331;"
     offset="1"
     id="stop2959" />
</linearGradient>
<radialGradient
   inkscape:collect="always"
   xlink:href="#linearGradient2893"
   id="radialGradient3236"
   gradientUnits="userSpaceOnUse"
   gradientTransform="matrix(1.215027,1.531577e-24,1.464684e-23,1.266667,-839.1924,-490.4894)"
   cx="858.04236"
   cy="579.93323"
   fx="858.04236"
   fy="579.93323"
   r="300" />
<inkscape:perspective
   id="perspective2498"
   inkscape:persp3d-origin="297.63751 : 280.63 : 1"
   inkscape:vp_z="595.27502 : 420.94501 : 1"
   inkscape:vp_y="0 : 1000 : 0"
   inkscape:vp_x="0 : 420.94501 : 1"
   sodipodi:type="inkscape:persp3d" />

	
	

	
	

		
	
		
		
	</defs>
  <sodipodi:namedview
     inkscape:window-height="846"
     inkscape:window-width="1182"
     inkscape:pageshadow="2"
     inkscape:pageopacity="0.0"
     guidetolerance="10.0"
     gridtolerance="10.0"
     objecttolerance="10.0"
     borderopacity="1.0"
     bordercolor="#666666"
     pagecolor="#ffffff"
     id="base"
     inkscape:zoom="0.64493256"
     inkscape:cx="326.39989"
     inkscape:cy="296.9945"
     inkscape:window-x="34"
     inkscape:window-y="42"
     inkscape:current-layer="layer2"
     showgrid="false"
     showguides="true"
     inkscape:guide-bbox="true">
    <sodipodi:guide
       orientation="horizontal"
       position="761.5"
       id="guide1885" />
    <sodipodi:guide
       orientation="vertical"
       position="1.5"
       id="guide1887" />
    <sodipodi:guide
       orientation="horizontal"
       position="1.5"
       id="guide1889" />
    <sodipodi:guide
       orientation="vertical"
       position="601.5"
       id="guide1891" />
    <sodipodi:guide
       orientation="vertical"
       position="301.50081"
       id="guide1893" />
  </sodipodi:namedview>
  <desc
     id="desc22">Coat of Arms of Canton of Freiburg (Fribourg)</desc>
  <g
     inkscape:groupmode="layer"
     id="layer1"
     inkscape:label="Fond écu"
     style="opacity:1;display:inline"
     sodipodi:insensitive="true">
    <path
       d="M 1.5,1.5 L 1.5,460.369 C 1.5,626.68 135.814,761.5 301.5,761.5 C 467.188,761.5 601.5,626.68 601.5,460.369 L 601.5,1.5 L 1.5,1.5 z"
       id="path1899_10_"
       style="opacity:1;fill:#ffffff;display:inline" />
    <path
       d="M 1.5,251.188 L 1.5,460.369 C 1.5,626.68 135.814,761.5 301.5,761.5 C 467.188,761.5 601.5,626.68 601.5,460.369 L 601.5,251.188 L 1.5,251.188 z"
       id="path2472"
       style="opacity:1;fill:#e20909;display:inline" />
  </g>
  <g
     inkscape:groupmode="layer"
     id="layer2"
     inkscape:label="Meubles"
     style="opacity:1;display:inline"
     sodipodi:insensitive="true">
    <path
       style="fill:#ffffff"
       d="M 465.491,422.343 C 465.491,363.851 495.125,363.851 495.125,305.359 C 495.125,278.984 489.1,264.503 482.482,251.188 L 363.276,251.188 C 369.893,264.503 375.919,278.984 375.919,305.359 C 375.919,363.851 346.285,363.851 346.285,422.343 C 346.285,480.834 375.919,480.834 375.919,539.326 C 375.919,597.817 346.287,597.817 346.287,656.308 C 346.287,706.902 368.454,713.741 374.441,752.516 C 411.399,743.248 445.644,727.113 475.744,705.519 C 470.135,693.442 465.493,679.456 465.493,656.308 C 465.493,597.817 495.125,597.817 495.125,539.326 C 495.125,480.834 465.491,480.834 465.491,422.343 z M 244.07,251.188 L 124.864,251.188 C 131.481,264.503 137.507,278.984 137.507,305.359 C 137.507,363.851 107.873,363.851 107.873,422.343 C 107.873,480.834 137.507,480.834 137.507,539.326 C 137.507,597.817 107.875,597.817 107.875,656.308 C 107.875,673.322 110.384,685.382 113.94,695.377 C 154.105,727.716 202.724,749.91 255.955,758.049 C 251.328,714.271 227.081,709.219 227.081,656.308 C 227.081,597.817 256.713,597.817 256.713,539.326 C 256.713,480.834 227.079,480.834 227.079,422.343 C 227.079,363.851 256.713,363.851 256.713,305.359 C 256.713,278.984 250.687,264.503 244.07,251.188 z"
       id="path2487" />
    <path
       style="fill:none;stroke:#000000;stroke-width:3"
       d="M 475.744,705.52 C 470.135,693.443 465.493,679.457 465.493,656.309 C 465.493,597.818 495.125,597.818 495.125,539.327 C 495.125,480.835 465.491,480.835 465.491,422.344 C 465.491,363.852 495.125,363.852 495.125,305.36 C 495.125,278.985 489.1,264.504 482.482,251.189 M 363.276,251.188 C 369.893,264.503 375.919,278.984 375.919,305.359 C 375.919,363.851 346.285,363.851 346.285,422.343 C 346.285,480.834 375.919,480.834 375.919,539.326 C 375.919,597.817 346.287,597.817 346.287,656.308 C 346.287,706.902 368.454,713.741 374.441,752.516 M 255.955,758.05 C 251.328,714.272 227.081,709.22 227.081,656.309 C 227.081,597.818 256.713,597.818 256.713,539.327 C 256.713,480.835 227.079,480.835 227.079,422.344 C 227.079,363.852 256.713,363.852 256.713,305.36 C 256.713,278.985 250.687,264.504 244.07,251.189 M 124.864,251.188 C 131.481,264.503 137.507,278.984 137.507,305.359 C 137.507,363.851 107.873,363.851 107.873,422.343 C 107.873,480.834 137.507,480.834 137.507,539.326 C 137.507,597.817 107.875,597.817 107.875,656.308 C 107.875,673.322 110.384,685.382 113.94,695.377"
       id="path2489" />
    <line
       style="fill:none;stroke:#000000;stroke-width:3"
       id="line2484"
       x1="1.5"
       y1="251.18799"
       x2="601.49896"
       y2="251.18799" />
  </g>
  <g
     inkscape:groupmode="layer"
     id="layer3"
     inkscape:label="Reflet final"
     style="display:inline"
     sodipodi:insensitive="true">
    <path
       style="fill:url(#radialGradient3236);fill-opacity:1"
       d="M 1.5,1.5 L 1.5,460.3679 C 1.5,626.67854 135.81454,761.5 301.49993,761.5 C 467.1854,761.5 601.5,626.67854 601.5,460.3679 L 601.5,1.5 L 1.5,1.5 z "
       id="path2346" />
  </g>
  <g
     inkscape:groupmode="layer"
     id="layer4"
     inkscape:label="Contour final"
     style="display:inline"
     sodipodi:insensitive="true">
    <path
       style="fill:none;fill-opacity:1;stroke:#000000;stroke-width:3;stroke-miterlimit:4;stroke-dasharray:none;stroke-opacity:1"
       d="M 1.5,1.5 L 1.5,460.36794 C 1.5,626.67854 135.81454,761.5 301.49993,761.5 C 467.1854,761.5 601.5,626.67854 601.5,460.36794 L 601.5,1.5 L 1.5,1.5 z "
       id="path3239" />
  </g>
</svg>
